X: 1
T: Ellen O'Grady
M: 9/8
L: 1/8
R: slip jig
K: Amix
eaa efg fed | eaa efg ~f3 | eaa efg fed | ~g3 ecA Bcd |
eaa efg fed | eaa efg ~f3 | eaa efg fed | ~g3 ecA Bcd |
~e3 Bcd cBA | ~e3 Bcd ~c3 | ~e3 Bcd cBA | agf ecA Bcd |
~e3 Bcd cBA | ~e3 Bcd ~c3 | efg agf edc | ~f3 B2c dcB ||
